!!!COM: Corelli, Arcangelo
!!!OTL: 
!!!ONM: Opus 5, No. 5
!!!OMV: 3
!!!CDT: 1653/2/17/-1713/1/8/
!!!OCY: Italia
**kern	**kern
*clefC	*clefG
*k[b-]	*k[b-]
*d:	*d:
*M3/4	*M3/4
=1	=1
4E-	2.r
4G	.
4E-	.
=2	=2
4D	4f
4BB-	4.b-
4D	.
.	8a-
=3	=3
4E-	4g
4G	4e-
4E-	4r
=4	=4
4BB	4dd
4GG	4.gg
4BB	.
.	8ff
=5	=5
4C	4ee-
4E-	4cc
4C	4r
=6	=6
4F#	4aa
4D	4.ddd
4F#	.
.	8ccc
=7	=7
2G	4bb-
.	4ee-
4G	4ee-
=8	=8
2F#	4ee-
.	4dd
4F	4dd
=9	=9
2.E-	8gg
.	8b-
.	4.cc
.	8dd
=10	=10
2D	4dd
.	[2aa
4C	.
=11	=11
2BB-	4aa]
.	[2gg
4GG	.
=12	=12
2AA	4gg]
.	2ff
4D	.
=13	=13
4G	4ee-
4A	4cc#
4B-	[4dd
=14	=14
4G	8dd]
.	8ee
4A	2ee
4AA	.
=15	=15
4D	4dd
4d	[2ff
4c	.
=16	=16
4B	4.ff]
4G	.
.	8gg
4c	8ee-
.	8dd
=17	=17
4F	8ee-
.	8ff
4G	2dd
4GG	.
=18	=18
4C	4cc
4c	[2ee-
4B-	.
=19	=19
4A	4.ee-]
4F	.
.	8ff
4B-	8dd
.	8cc
=20	=20
4E-	8dd
.	8ee-
4F	2cc
4FF	.
=21	=21
4BB-	4b-
4d	[2bb-
4e	.
=22	=22
4f	8bb-]
.	8gg
4c	[2aa-
4d	.
=23	=23
4e-	8aa-]
.	8ff#
4B-	[2gg
4c	.
=24	=24
2.d	4gg]
.	4ff#
.	[4cc
=25	=25
2G	4cc]
.	8b
.	8cc
4F	[4dd
=26	=26
2E-	4dd]
.	4g
4C	4ee-
=27	=27
2D	4f#
.	4d
4BB-	4dd
=28	=28
2C	4ee-
.	2ff#
4D	.
=29	=29
4E-	[2.gg
4BB-	.
4C	.
=30	=30
4D	4gg]
4C	4.gg
4D	.
.	8ff#
=31	=31
2G	4gg
.	[2dd
4BB-	.
=32	=32
2E-	4dd]
.	4g
4C	4ee-
=33	=33
2C	2f#
4BB-	4dd
=34	=34
4C	8cc
.	8b-
4D	2a
4DD	.
=35	=35
2GG	2g
[4FF	[4dd
=36	=36
4FF]	4dd]
2EE-	2cc
=37	=37
2.DD	2.dd
==	==
*-	*-
!!!RWG: This file only contains pitch and duration data.
!!!RWG: Transposing instruments are not transposed.
!!!RWG: Durations of rests and tied notes may be interpreted.
!!!RWG: Key is interpreted using the Humdrum key tool.
!!!SCA: 
!!!YOR: 
!!!AGN: violin
!!!AFT: stage1
!!!ENC: F. Bennion
!!!END: 1997/04/15
!!!AST: baroque
!!!YEC: Copyright 1994, Center for Computer Assisted Research in the Humanities
!!!YEM: Rights to all derivative electronic formats reserved.
!!!YEM: Refer to licensing agreement for further details.
!!!YEN: United States of America
!!!EED: W.B. Hewlett
!!!KEY: 1297731508
!!!EMD: Converted from MuseData to Humdrum Aug 9, 1999, by Bret Aarden using muse2kern.
!!!VTS: 1867954843
